build/category/MagnetOutline.svg

<svg xmlns="http://www.w3.org/2000/svg" fill="none" viewBox="0 0 24 24" focusable="false"><path d="M0 0H24V24H0z"/><path fill="#74767B" fill-rule="evenodd" d="M15.8189 18.6967L20.5238 13.9918C21.0315 13.4841 21.0315 12.661 20.5238 12.1533L18.4858 10.1153C17.9781 9.60764 17.155 9.60764 16.6473 10.1153L12.1413 14.6214C11.364 15.3987 10.1037 15.3987 9.3264 14.6214C8.54909 13.8441 8.5491 12.5838 9.3264 11.8065L13.8325 7.30045C14.3401 6.79277 14.3401 5.96965 13.8325 5.46197L11.7557 3.38522C11.248 2.87754 10.4249 2.87754 9.91724 3.38522L5.21233 8.09012C2.28339 11.019 2.28339 15.7678 5.21232 18.6967C8.14125 21.6256 12.89 21.6256 15.8189 18.6967ZM17.1383 15.5389L14.8997 17.7775C12.4784 20.1987 8.5528 20.1987 6.13156 17.7775C3.71031 15.3562 3.71031 11.4306 6.13157 9.00936L8.37017 6.77076L10.4469 8.84751L8.40717 10.8873C7.12218 12.1722 7.12217 14.2556 8.40716 15.5406C9.69214 16.8256 11.7755 16.8256 13.0605 15.5406L15.1003 13.5009L17.1383 15.5389ZM11.3662 7.92827L9.28941 5.85152L10.8365 4.30446L12.9132 6.38121L11.3662 7.92827ZM18.0575 14.6196L19.6046 13.0726L17.5666 11.0346L16.0195 12.5816L18.0575 14.6196Z"/></svg>

<svg xmlns="http://www.w3.org/2000/svg" fill="none" viewBox="0 0 24 24" focusable="false"><path fill="#74767B" fill-rule="evenodd" d="m15.81 18.69 4.71-4.7c.51-.51.51-1.33 0-1.84l-2.04-2.04c-.51-.51-1.33-.51-1.84 0l-4.5 4.51c-.78.77-2.04.77-2.82 0-.78-.78-.78-2.04 0-2.82l4.51-4.5c.51-.51.51-1.34 0-1.84l-2.08-2.08c-.51-.51-1.33-.51-1.84 0l-4.7 4.71c-2.93 2.92-2.93 7.67 0 10.6s7.68 2.93 10.6 0m1.32-3.16-2.24 2.24a6.19 6.19 0 0 1-8.76 0 6.205 6.205 0 0 1 0-8.77l2.24-2.23 2.07 2.07-2.04 2.04a3.31 3.31 0 0 0 0 4.66 3.31 3.31 0 0 0 4.66 0l2.04-2.04zm-5.77-7.61L9.28 5.85l1.55-1.55 2.08 2.08zm6.69 6.69 1.55-1.54-2.04-2.04-1.55 1.55z"/></svg>
